dist/img/search-list.svg

<svg width="24" height="18" viewBox="0 0 24 18" fill="none" xmlns="http://www.w3.org/2000/svg">
<path d="M23.3557 14.1798L17.9883 8.81106C18.9954 6.52467 18.5644 3.75241 16.6947 1.88224C14.2587 -0.554334 10.3157 -0.554662 7.87936 1.88224C5.44907 4.3131 5.44907 8.26841 7.87936 10.6993C9.81061 12.6309 12.6409 12.9987 14.9003 11.9542L20.2402 17.2954C21.1012 18.1566 22.4949 18.1567 23.3558 17.2952C24.2144 16.4363 24.2143 15.0387 23.3557 14.1798ZM8.87386 9.70496C6.9917 7.82237 6.9917 4.75919 8.87386 2.87655C10.7602 0.989751 13.8135 0.989423 15.7002 2.87655C17.5824 4.75919 17.5824 7.82237 15.7002 9.70496C13.8138 11.5918 10.7605 11.5921 8.87386 9.70496ZM22.3612 16.3011C22.0499 16.6125 21.5461 16.6126 21.2347 16.3011L16.1329 11.1981C16.5523 10.868 16.926 10.4889 17.2506 10.0623L22.3611 15.174C22.6718 15.4848 22.6718 15.9903 22.3612 16.3011Z" fill="#262626"/>
<path d="M0.703157 8.48053H3.70151C4.08984 8.48053 4.40467 8.1657 4.40467 7.77737C4.40467 7.38904 4.08984 7.07422 3.70151 7.07422H0.703157C0.314827 7.07422 0 7.38904 0 7.77737C0 8.1657 0.314827 8.48053 0.703157 8.48053Z" fill="#262626"/>
<path d="M0.703157 11.4805H4.8259C5.21423 11.4805 5.52906 11.1657 5.52906 10.7774C5.52906 10.389 5.21423 10.0742 4.8259 10.0742H0.703157C0.314827 10.0742 0 10.389 0 10.7774C0 11.1657 0.314827 11.4805 0.703157 11.4805Z" fill="#262626"/>
<path d="M0.703157 14.4805H7.8243C8.21263 14.4805 8.52746 14.1657 8.52746 13.7774C8.52746 13.389 8.21263 13.0742 7.8243 13.0742H0.703157C0.314827 13.0742 0 13.389 0 13.7774C0 14.1657 0.314827 14.4805 0.703157 14.4805Z" fill="#262626"/>
<path d="M16.0699 16.0742H0.703157C0.314827 16.0742 0 16.389 0 16.7774C0 17.1657 0.314827 17.4805 0.703157 17.4805H16.0699C16.4582 17.4805 16.7731 17.1657 16.7731 16.7774C16.7731 16.389 16.4582 16.0742 16.0699 16.0742Z" fill="#262626"/>
</svg>

<svg width="24" height="18" fill="none" xmlns="http://www.w3.org/2000/svg"><path d="M23.356 14.18l-5.368-5.37a6.246 6.246 0 00-1.293-6.929 6.229 6.229 0 00-8.816 0 6.243 6.243 0 000 8.817 6.234 6.234 0 007.021 1.255l5.34 5.341a2.201 2.201 0 003.116 0 2.206 2.206 0 000-3.115zM8.874 9.705a4.835 4.835 0 010-6.828 4.823 4.823 0 016.826 0 4.835 4.835 0 010 6.828 4.823 4.823 0 01-6.826 0zm13.487 6.596a.796.796 0 01-1.126 0l-5.102-5.103c.42-.33.793-.71 1.118-1.136l5.11 5.112a.8.8 0 010 1.127zM.703 8.48h2.999a.703.703 0 000-1.406H.703a.703.703 0 000 1.407zm0 3h4.123a.703.703 0 100-1.406H.703a.703.703 0 000 1.406zm0 3h7.121a.703.703 0 100-1.406H.704a.703.703 0 000 1.406zm15.367 1.594H.703a.703.703 0 000 1.406H16.07a.703.703 0 100-1.406z" fill="#262626"/></svg>
